assets/illustration_security_dark.svg

<svg height="213" viewBox="0 0 230 213" width="230" xmlns="http://www.w3.org/2000/svg" xmlns:xlink="http://www.w3.org/1999/xlink"><linearGradient id="a"><stop offset="0" stop-color="#a8fdff"/><stop offset="1" stop-color="#61deff"/></linearGradient><linearGradient id="b" x1="90.608803%" x2="8.144375%" xlink:href="#a" y1="49.821564%" y2="50.249216%"/><linearGradient id="c" x1="51.593801%" x2="50%" xlink:href="#a" y1="0%" y2="94.116338%"/><linearGradient id="d" x1="48.100839%" x2="50%" xlink:href="#a" y1="0%" y2="100%"/><linearGradient id="e" x1="83.727136%" x2="36.615819%" xlink:href="#a" y1="16.32785%" y2="79.399411%"/><linearGradient id="f" x1="35.316979%" x2="88.776759%" xlink:href="#a" y1="81.668626%" y2="17.485532%"/><linearGradient id="g" x1="100%" x2="29.512871%" xlink:href="#a" y1="46.402936%" y2="57.86126%"/><linearGradient id="h" x1="100%" x2="29.512871%" xlink:href="#a" y1="46.283641%" y2="58.121974%"/><linearGradient id="i" x1="100%" x2="29.512871%" xlink:href="#a" y1="45.98075%" y2="58.783933%"/><linearGradient id="j" x1="84.716853%" x2="17.334786%" xlink:href="#a" y1="13.123856%" y2="87.011176%"/><linearGradient id="k" x1="77.764725%" x2="25.570999%" xlink:href="#a" y1="11.161244%" y2="83.7634%"/><linearGradient id="l" x1="78.650856%" x2="17.781118%" xlink:href="#a" y1="18.550834%" y2="81.526432%"/><linearGradient id="m" x1="85.17319%" x2="18.746914%" xlink:href="#a" y1="15.395967%" y2="84.405847%"/><linearGradient id="n" x1="54.530042%" x2="46.146173%" xlink:href="#a" y1="5.698743%" y2="98.625535%"/><linearGradient id="o" x1="50%" x2="30.977513%" xlink:href="#a" y1="29.267817%" y2="100%"/><g fill="none" fill-rule="evenodd"><ellipse cx="133.501059" cy="205.508753" fill="url(#b)" fill-opacity=".25" rx="96.498941" ry="6.812796"/><path d="m195.872924 117.318444-52.503157-65.6092908c-2.383994 2.1802045-5.321278 3.6633478-8.491017 4.2874289-9.884261 1.946623-19.537143-4.8031985-21.56032-15.0761485-1.430156-7.2618167 1.338426-14.3362869 6.573684-18.5495354l-17.902075-22.3708982-101.990039 87.1661848 93.8828688 117.3184432z" fill="url(#c)" fill-rule="nonzero" opacity=".25"/><path d="m84.9732357 64.1956406-43.7451116 8.9392062c-2.5034518.5115753-4.6415212 2.1273279-5.8171058 4.3960238-1.1755847 2.2686958-1.2627001 4.9472043-.2370175 7.2874939l49.8701125 113.7881965c2.2645907 5.167094 8.0416095 7.817322 13.4353192 6.163502l50.4039245-15.517228c2.706928-.833349 4.900439-2.831733 5.981647-5.44954 1.081208-2.617808.937193-5.581638-.392726-8.082287l-56.2288517-105.727239c-3.5029407-6.8615435-6.4047716-6.8615435-13.2701906-5.7981284z" fill="#d7d9e6" fill-rule="nonzero"/><path d="m41.1723845 74.2441226 46.5447621-9.1778529c3.0431543-.6000607 6.1232272.8469016 7.6041461 3.5722897l58.2309253 107.1644446c1.014016 1.866132 1.13514 4.089321.329868 6.054573-.805272 1.965251-2.451574 3.464227-4.483493 4.082271l-49.6277133 15.095083c-4.2787523 1.301449-8.8581786-.778732-10.6930924-4.857284l-51.6204424-114.7392606c-.6469613-1.4380325-.6023513-3.0926883.1211534-4.4937726s2.0468126-2.3954345 3.5938862-2.7004912z" fill="url(#d)" fill-rule="nonzero"/><path d="m102.709303 161.470659 65.82875-17.895723-41.369309-75.1570213-60.2251184 13.0805687-.2861374.2152844-.80391.6022512z" fill="#d7d9e6" fill-rule="nonzero"/><g transform="matrix(.99939083 -.0348995 .0348995 .99939083 87.966543 82.423027)"><path d="m.808204 15.064556h3.6v3.190239h-3.6z" fill="#64dfff"/><path d="m32.9418532 7.16652524c1.7012818.2975967 3.1621376 1.35846403 3.6937777 2.67527359 5.6631238 13.33193917-2.4544989 26.60590867-7.2202702 28.27079057-4.7657714 1.6648819-21.44257744-2.5800977-28.19849995-18.9258819-.63422934-1.6105375-.24548917-3.4223372.98293053-4.5547237l12.89011162-10.74345832z" fill="#64dfff" transform="matrix(.99939083 -.0348995 .0348995 .99939083 -.726748 .701898)"/><path d="m33.3228057 4.17799976c1.7012818.2975967 3.1621376 1.35846403 3.6937777 2.67527359 5.6631238 13.33193915-2.4544988 26.60590865-7.2202702 28.27079055s-21.44257742-2.5800976-28.19849992-18.9258819c-.63422935-1.6105375-.24548918-3.4223372.98293053-4.5547237l12.89011159-10.7434583z" fill="url(#e)" stroke="url(#f)" stroke-linejoin="round" stroke-width=".75" transform="matrix(.99939083 -.0348995 .0348995 .99939083 -.622218 .713372)"/></g><path d="m102.709303 161.470659 65.130331-17.71327v-2.180095l-64.857819 18.258294-36.3243268-78.1218202-.80391.6022512z" fill="#000" fill-rule="nonzero" opacity=".2"/><path d="m148.295135 121.592213-47.962085 12.263033" fill-rule="nonzero" stroke="url(#g)" stroke-linecap="round"/><path d="m151.020254 126.769938-48.234598 12.535545" fill-rule="nonzero" stroke="url(#h)" stroke-linecap="round"/><path d="m144.752481 133.855246-30.248815 8.175356" fill-rule="nonzero" stroke="url(#i)" stroke-linecap="round"/><circle cx="168.801755" cy="15.510252" fill="url(#j)" opacity=".25" r="4.021065"/><circle cx="216.491329" cy="132.417835" fill="url(#k)" opacity=".25" r="6.812796"/><circle cx="41.275357" cy="26.344113" fill="url(#l)" opacity=".25" r="6.812796"/><g fill-rule="nonzero"><circle cx="130.635795" cy="38.077917" fill="url(#m)" opacity=".25" r="14.801525"/><circle cx="188.838039" cy="64.017576" fill="#2f2e41" r="10.028395"/><path d="m199.656896 189.685687 1.907583 8.175356h-4.632702l-1.907583-9.265403z" fill="#9f616a"/><path d="m177.310924 189.685687v7.630332l-4.632701.545024v-8.175356z" fill="#9f616a"/><path d="m201.019362 103.026889s-.545023 11.71801-1.090047 12.535545c-.545024.817536-5.450237 12.535546-5.450237 12.535546l-2.452607-7.630332s3.815166-6.267773 3.270143-9.810427c-.545024-3.542654-.201659-7.902056-.201659-7.902056z" fill="#9f616a"/><circle cx="185.486184" cy="67.055323" fill="#9f616a" r="7.630332"/><path d="m191.753959 67.872861s-.272511 10.900474 1.635072 12.535545c1.907583 1.6350711-10.900474.2725119-10.900474.2725119s2.725118-7.6303318.545023-9.2654029c-2.180094-1.635071 8.720379-3.542654 8.720379-3.542654z" fill="#9f616a"/><path d="m201.468285 87.3624919c.235106 4.5643945.747542 15.8858571.096101 16.7544451-.817517 1.090023-6.501139.558062-6.929577-.402196-1.618921 3.362682-2.88085 5.852433-2.88085 5.852433s1.36256 4.632701 1.090048 5.722749c-.272512 1.090047 1.362559 4.360189 1.090047 5.722748-.272512 1.36256 4.087678 9.537915 1.907583 20.165877v17.168247s7.35782 29.703791 5.177725 31.883886c-2.180094 2.180095-9.537914.817535-10.900474 0-1.362559-.817536-7.085308-41.966825-7.085308-41.966825l-2.725118-13.898104-.272512 30.521327s.545024 25.616114-1.362559 26.433649c-1.907583.817536-9.265403 1.090048-9.810427-.545023-.425075-1.275222-2.507763-35.205449-3.403896-50.078533-.310449-5.133765.093347-10.285775 1.199826-15.308486 1.134219-5.144392 2.780842-11.188402 4.656682-13.641417 3.542654-4.632702 5.722749-19.3483416 5.722749-19.3483416-3.088467-5.6319116-4.632701-8.4478673-4.632701-8.4478673s4.632701-3.8151659 9.265397-3.8151659c0 0 1.635071-2.9976303 3.815166-2.7251185 2.180095.2725119 9.265403.8175356 9.537915 1.3625593.272512.5450236 1.090047 2.4526066 1.635071 2.9976303.545023.5450237 4.632701 1.3625592 4.905213 4.6327014.019746.2369577-.014879.5611972-.096101.9588252z" fill="url(#n)"/><path d="m175.627624 100.45534c.797678 5.533783 1.496719 10.459915-2.582009 14.916516-4.099041 4.510224-8.722118 8.514711-13.770997 11.928372-.500247 1.32516-7.844313 11.056397-8.217902 7.174717-.373589-3.881681 2.16376-6.924769 5.769487-10.20725 3.605727-3.282482 8.650172-10.404601 11.496427-14.312513 2.846256-3.907913 1.67449-6.344847 1.575626-9.609041-.098865-3.2641929 4.61023.148702 5.729368.109199z" fill="#9f616a"/><path d="m172.67813 192.901082s-.272512 3.052348-1.090047 3.869883c-.817536.817536-2.997631 1.907583-2.725119 4.905214.272512 2.99763 2.043839 3.133886 2.043839 3.133886h.817536 7.630331s.136256-2.861375-.136256-4.223934c-.272511-1.362559-.272511-7.902843-1.090047-7.630332-.817535.272512-2.99763.545024-3.542654 1.635071-.545024 1.090048-2.180095.708101-1.907583-1.689788z" fill="#d7d9e6"/><path d="m200.474339 192.901082s.272511 3.052348 1.090047 3.869883c.817536.817536 2.99763 1.907583 2.725119 4.905214-.272512 2.99763-2.043839 3.133886-2.043839 3.133886h-.817536-7.630332s-.136256-2.861375.136256-4.223934.272512-7.902843 1.090048-7.630332c.817535.272512 2.99763.545024 3.542654 1.635071.545023 1.090048 2.180094.708101 1.907583-1.689788z" fill="#d7d9e6"/><circle cx="199.702133" cy="50.813524" fill="#2f2e41" r="10.028395"/><path d="m208.352157 59.1176794c-2.633753 1.9035735-6.026591 2.4130211-9.103254 1.3668886s-5.455736-3.5181557-6.383242-6.6326351c.471592 3.7503514 3.011765 6.9169895 6.5705 8.1909358s7.531464.4387792 10.275997-2.1602722c2.744534-2.5990513 3.794624-6.5204527 2.716199-10.1432325.457579 3.6361673-1.105426 7.2322504-4.0762 9.3783154z" fill="#2f2e41"/><circle cx="191.512274" cy="65.688973" fill="#2f2e41" r="7.354157"/><ellipse cx="185.3281" cy="62.931161" fill="#2f2e41" rx="6.518456" ry="5.097767"/><ellipse cx="183.589442" cy="68.154824" fill="#a0616a" rx="1.237141" ry="2.188791"/><path d="m176.220784 83.1335245c-1.375348-.2850244-2.64707-.0125126-3.815166.8175356-1.752144 1.2450722-4.087677 16.6232229-3.270142 16.8957349.817536.272512 8.447867 4.087677 8.992891 1.907583.545024-2.180095 1.907583-19.6208535-1.907583-19.6208535z" fill="url(#o)"/></g></g></svg>

<?xml version="1.0" encoding="UTF-8"?>
<svg width="230px" height="213px" viewBox="0 0 230 213" version="1.1" xmlns="http://www.w3.org/2000/svg" xmlns:xlink="http://www.w3.org/1999/xlink">
    <!-- Generator: Sketch 55.2 (78181) - https://sketchapp.com -->
    <title>Illustration/Security Copy 3</title>
    <desc>Created with Sketch.</desc>
    <defs>
        <linearGradient x1="82.8504589%" y1="49.8340278%" x2="20.8102148%" y2="50.1853755%" id="linearGradient-1">
            <stop stop-color="#ACB7D1" offset="0%"></stop>
            <stop stop-color="#6F70A8" offset="100%"></stop>
        </linearGradient>
        <linearGradient x1="52.5331017%" y1="0%" x2="53.9496844%" y2="95.1570693%" id="linearGradient-2">
            <stop stop-color="#ACB7D1" offset="0%"></stop>
            <stop stop-color="#6F70A8" offset="100%"></stop>
        </linearGradient>
        <linearGradient x1="47.1176833%" y1="0%" x2="50%" y2="100%" id="linearGradient-3">
            <stop stop-color="#ACB7D1" offset="0%"></stop>
            <stop stop-color="#6F70A8" offset="100%"></stop>
        </linearGradient>
        <linearGradient x1="90.6978673%" y1="13.6405045%" x2="50%" y2="85.952346%" id="linearGradient-4">
            <stop stop-color="#ACB7D1" offset="0%"></stop>
            <stop stop-color="#6F70A8" offset="100%"></stop>
        </linearGradient>
        <linearGradient x1="16.6986964%" y1="99.1733788%" x2="110.848281%" y2="-7.90928428%" id="linearGradient-5">
            <stop stop-color="#ACB7D1" offset="0%"></stop>
            <stop stop-color="#6F70A8" offset="100%"></stop>
        </linearGradient>
        <linearGradient x1="97.1006016%" y1="45.1696596%" x2="0%" y2="53.2686596%" id="linearGradient-6">
            <stop stop-color="#ACB7D1" offset="0%"></stop>
            <stop stop-color="#6F70A8" offset="100%"></stop>
        </linearGradient>
        <linearGradient x1="97.1006016%" y1="45.0094642%" x2="0%" y2="53.3770628%" id="linearGradient-7">
            <stop stop-color="#ACB7D1" offset="0%"></stop>
            <stop stop-color="#6F70A8" offset="100%"></stop>
        </linearGradient>
        <linearGradient x1="97.1006016%" y1="44.6027244%" x2="0%" y2="53.6523009%" id="linearGradient-8">
            <stop stop-color="#ACB7D1" offset="0%"></stop>
            <stop stop-color="#6F70A8" offset="100%"></stop>
        </linearGradient>
        <linearGradient x1="82.8504589%" y1="16.7011141%" x2="20.8102148%" y2="87.1917517%" id="linearGradient-9">
            <stop stop-color="#ACB7D1" offset="0%"></stop>
            <stop stop-color="#6F70A8" offset="100%"></stop>
        </linearGradient>
        <linearGradient x1="53.986132%" y1="3.22353636%" x2="46.1265821%" y2="100%" id="linearGradient-10">
            <stop stop-color="#ACB7D1" offset="0%"></stop>
            <stop stop-color="#6F70A8" offset="100%"></stop>
        </linearGradient>
        <linearGradient x1="61.6544249%" y1="0%" x2="27.9494382%" y2="159.481394%" id="linearGradient-11">
            <stop stop-color="#ACB7D1" offset="0%"></stop>
            <stop stop-color="#6F70A8" offset="100%"></stop>
        </linearGradient>
    </defs>
    <g id="Illustration/Security-Copy-3" stroke="none" stroke-width="1" fill="none" fill-rule="evenodd">
        <g id="Illustration/Phone" transform="translate(0.000000, 0.000000)">
            <ellipse id="Oval" fill-opacity="0.25" fill="url(#linearGradient-1)" cx="133.501059" cy="205.508753" rx="96.4989412" ry="6.81279621"></ellipse>
            <path d="M195.872924,117.318444 L143.369767,51.7091532 C140.985773,53.8893577 138.048489,55.372501 134.87875,55.9965821 C124.994489,57.9432051 115.341607,51.1933836 113.31843,40.9204336 C111.888274,33.6586169 114.656856,26.5841467 119.892114,22.3708982 L101.990039,0 L0,87.1661848 L93.8828688,204.484628 L195.872924,117.318444 Z" id="Path" fill="url(#linearGradient-2)" fill-rule="nonzero" opacity="0.25"></path>
            <path d="M84.9732357,64.1956406 L41.2281241,73.1348468 C38.7246723,73.6464221 36.5866029,75.2621747 35.4110183,77.5308706 C34.2354336,79.7995664 34.1483182,82.4780749 35.1740008,84.8183645 L85.0441133,198.606561 C87.308704,203.773655 93.0857228,206.423883 98.4794325,204.770063 L148.883357,189.252835 C151.590285,188.419486 153.783796,186.421102 154.865004,183.803295 C155.946212,181.185487 155.802197,178.221657 154.472278,175.721008 L98.2434263,69.993769 C94.7404856,63.1322255 91.8386547,63.1322255 84.9732357,64.1956406 Z" id="Path" fill="#B5B5BF" fill-rule="nonzero"></path>
            <path d="M41.1723845,74.2441226 L87.7171466,65.0662697 C90.7603009,64.466209 93.8403738,65.9131713 95.3212927,68.6385594 L153.552218,175.803004 C154.566234,177.669136 154.687358,179.892325 153.882086,181.857577 C153.076814,183.822828 151.430512,185.321804 149.398593,185.939848 L99.7708797,201.034931 C95.4921274,202.33638 90.9127011,200.256199 89.0777873,196.177647 L37.4573449,81.4383864 C36.8103836,80.0003539 36.8549936,78.3456981 37.5784983,76.9446138 C38.302003,75.5435295 39.6253109,74.5491793 41.1723845,74.2441226 Z" id="Path" fill="url(#linearGradient-3)" fill-rule="nonzero"></path>
            <polygon id="Path" fill="#B5B5BF" fill-rule="nonzero" points="102.709303 161.470659 168.538053 143.574936 127.168744 68.4179147 66.9436256 81.4984834 66.6574882 81.7137678 65.8535782 82.316019"></polygon>
            <g id="Group" transform="translate(108.652349, 101.712854) rotate(-2.000000) translate(-108.652349, -101.712854) translate(88.652349, 81.712854)">
                <rect id="Rectangle" fill="#8C93BC" x="0.808204142" y="15.064556" width="3.6" height="3.19023936"></rect>
                <path d="M32.9418532,7.16652524 C34.643135,7.46412194 36.1039908,8.52498927 36.6356309,9.84179883 C42.2987547,23.173738 34.181132,36.4477075 29.4153607,38.1125894 C24.6495893,39.7774713 7.97278326,35.5324917 1.21686075,19.1867075 C0.58263141,17.57617 0.971371578,15.7643703 2.19979128,14.6319838 L15.0899029,3.88852548 L32.9418532,7.16652524 Z" id="Shape" fill="#8C93BC" transform="translate(19.742476, 21.168625) rotate(-2.000000) translate(-19.742476, -21.168625) "></path>
                <path d="M33.3228057,4.17799976 C35.0240875,4.47559646 36.4849433,5.53646379 37.0165834,6.85327335 C42.6797072,20.1852125 34.5620846,33.459182 29.7963132,35.1240639 C25.0305418,36.7889458 8.35373578,32.5439663 1.59781328,16.198182 C0.963583934,14.5876445 1.3523241,12.7758448 2.58074381,11.6434583 L15.4708554,0.9 L33.3228057,4.17799976 Z" id="Shape" stroke="url(#linearGradient-5)" stroke-width="0.75" fill="url(#linearGradient-4)" stroke-linejoin="round" transform="translate(20.123429, 18.180100) rotate(-2.000000) translate(-20.123429, -18.180100) "></path>
            </g>
            <polygon id="Path" fill="#000000" fill-rule="nonzero" opacity="0.15" points="102.709303 161.470659 167.839634 143.757389 167.839634 141.577294 102.981815 159.835588 66.6574882 81.7137678 65.8535782 82.316019"></polygon>
            <path d="M148.295135,121.592213 L100.33305,133.855246" id="Path" stroke="url(#linearGradient-6)" stroke-linecap="round" fill-rule="nonzero"></path>
            <path d="M151.020254,126.769938 L102.785656,139.305483" id="Path" stroke="url(#linearGradient-7)" stroke-linecap="round" fill-rule="nonzero"></path>
            <path d="M144.752481,133.855246 L114.503666,142.030602" id="Path" stroke="url(#linearGradient-8)" stroke-linecap="round" fill-rule="nonzero"></path>
            <circle id="Oval" fill="url(#linearGradient-9)" opacity="0.25" cx="168.801755" cy="15.5102517" r="4.02106493"></circle>
            <circle id="Oval" fill="url(#linearGradient-9)" opacity="0.25" cx="216.491329" cy="132.417835" r="6.81279621"></circle>
            <circle id="Oval" fill="url(#linearGradient-9)" opacity="0.25" cx="41.2753572" cy="26.3441128" r="6.81279621"></circle>
            <circle id="Oval" fill="url(#linearGradient-9)" fill-rule="nonzero" opacity="0.25" cx="130.635795" cy="38.0779171" r="14.8015246"></circle>
            <circle id="Oval" fill="#4A4867" fill-rule="nonzero" cx="188.838039" cy="64.0175759" r="10.0283951"></circle>
            <polygon id="Path" fill="#9F616A" fill-rule="nonzero" points="199.656896 189.685687 201.564479 197.861043 196.931777 197.861043 195.024194 188.59564"></polygon>
            <polygon id="Path" fill="#9F616A" fill-rule="nonzero" points="177.310924 189.685687 177.310924 197.316019 172.678223 197.861043 172.678223 189.685687"></polygon>
            <path d="M201.019362,103.026889 C201.019362,103.026889 200.474339,114.744899 199.929315,115.562434 C199.384291,116.37997 194.479078,128.09798 194.479078,128.09798 L192.026471,120.467648 C192.026471,120.467648 195.841637,114.199875 195.296614,110.657221 C194.75159,107.114567 195.094955,102.755165 195.094955,102.755165 L201.019362,103.026889 Z" id="Path" fill="#FFC1C7" fill-rule="nonzero"></path>
            <circle id="Oval" fill="#FFC1C7" fill-rule="nonzero" cx="185.486184" cy="67.0553227" r="7.63033175"></circle>
            <path d="M191.753959,67.872861 C191.753959,67.872861 191.481448,78.773335 193.389031,80.408406 C195.296614,82.0434771 182.488557,80.6809179 182.488557,80.6809179 C182.488557,80.6809179 185.213675,73.0505861 183.03358,71.415515 C180.853486,69.780444 191.753959,67.872861 191.753959,67.872861 Z" id="Path" fill="#FFC1C7" fill-rule="nonzero"></path>
            <path d="M201.468285,87.3624919 C201.703391,91.9268864 202.215827,103.248349 201.564386,104.116937 C200.746869,105.20696 195.063247,104.674999 194.634809,103.714741 C193.015888,107.077423 191.753959,109.567174 191.753959,109.567174 C191.753959,109.567174 193.116519,114.199875 192.844007,115.289923 C192.571495,116.37997 194.206566,119.650112 193.934054,121.012671 C193.661542,122.375231 198.021732,130.550586 195.841637,141.178548 L195.841637,158.346795 C195.841637,158.346795 203.199457,188.050586 201.019362,190.230681 C198.839268,192.410776 191.481448,191.048216 190.118888,190.230681 C188.756329,189.413145 183.03358,148.263856 183.03358,148.263856 L180.308462,134.365752 L180.03595,164.887079 C180.03595,164.887079 180.580974,190.503193 178.673391,191.320728 C176.765808,192.138264 169.407988,192.410776 168.862964,190.775705 C168.437889,189.500483 166.355201,155.570256 165.459068,140.697172 C165.148619,135.563407 165.552415,130.411397 166.658894,125.388686 C167.793113,120.244294 169.439736,114.200284 171.315576,111.747269 C174.85823,107.114567 177.038325,92.3989274 177.038325,92.3989274 C173.949858,86.7670158 172.405624,83.9510601 172.405624,83.9510601 C172.405624,83.9510601 177.038325,80.1358942 181.671021,80.1358942 C181.671021,80.1358942 183.306092,77.1382639 185.486187,77.4107757 C187.666282,77.6832876 194.75159,78.2283113 195.024102,78.773335 C195.296614,79.3183586 196.114149,81.2259416 196.659173,81.7709653 C197.204196,82.315989 201.291874,83.1335245 201.564386,86.4036667 C201.584132,86.6406244 201.549507,86.9648639 201.468285,87.3624919 Z" id="Combined-Shape" fill="url(#linearGradient-10)" fill-rule="nonzero"></path>
            <path d="M175.627624,100.45534 C176.425302,105.989123 177.124343,110.915255 173.045615,115.371856 C168.946574,119.88208 164.323497,123.886567 159.274618,127.300228 C158.774371,128.625388 151.430305,138.356625 151.056716,134.474945 C150.683127,130.593264 153.220476,127.550176 156.826203,124.267695 C160.43193,120.985213 165.476375,113.863094 168.32263,109.955182 C171.168886,106.047269 169.99712,103.610335 169.898256,100.346141 C169.799391,97.0819481 174.508486,100.494843 175.627624,100.45534 Z" id="Path" fill="#FFC1C7" fill-rule="nonzero"></path>
            <path d="M172.67813,192.901082 C172.67813,192.901082 172.405618,195.95343 171.588083,196.770965 C170.770547,197.588501 168.590452,198.678548 168.862964,201.676179 C169.135476,204.673809 170.906803,204.810065 170.906803,204.810065 L171.724339,204.810065 L179.35467,204.810065 C179.35467,204.810065 179.490926,201.94869 179.218414,200.586131 C178.945903,199.223572 178.945903,192.683288 178.128367,192.955799 C177.310832,193.228311 175.130737,193.500823 174.585713,194.59087 C174.040689,195.680918 172.405618,195.298971 172.67813,192.901082 Z" id="Path" fill="#B5B5BF" fill-rule="nonzero"></path>
            <path d="M200.474339,192.901082 C200.474339,192.901082 200.74685,195.95343 201.564386,196.770965 C202.381922,197.588501 204.562016,198.678548 204.289505,201.676179 C204.016993,204.673809 202.245666,204.810065 202.245666,204.810065 L201.42813,204.810065 L193.797798,204.810065 C193.797798,204.810065 193.661542,201.94869 193.934054,200.586131 C194.206566,199.223572 194.206566,192.683288 195.024102,192.955799 C195.841637,193.228311 198.021732,193.500823 198.566756,194.59087 C199.111779,195.680918 200.74685,195.298971 200.474339,192.901082 Z" id="Path" fill="#B5B5BF" fill-rule="nonzero"></path>
            <circle id="Oval" fill="#4A4867" fill-rule="nonzero" cx="199.702133" cy="50.8135239" r="10.0283951"></circle>
            <path d="M208.352157,59.1176794 C205.718404,61.0212529 202.325566,61.5307005 199.248903,60.484568 C196.17224,59.4384355 193.793167,56.9664123 192.865661,53.8519329 C193.337253,57.6022843 195.877426,60.7689224 199.436161,62.0428687 C202.994896,63.316815 206.967625,62.4816479 209.712158,59.8825965 C212.456692,57.2835452 213.506782,53.3621438 212.428357,49.739364 C212.885936,53.3755313 211.322931,56.9716144 208.352157,59.1176794 Z" id="Path" fill="#4A4867" fill-rule="nonzero"></path>
            <circle id="Oval" fill="#4A4867" fill-rule="nonzero" cx="191.512274" cy="65.6889729" r="7.35415735"></circle>
            <ellipse id="Oval" fill="#4A4867" fill-rule="nonzero" cx="185.3281" cy="62.9311611" rx="6.51845616" ry="5.09776742"></ellipse>
            <ellipse id="Oval" fill="#FFC1C7" fill-rule="nonzero" cx="183.589442" cy="68.1548236" rx="1.23714111" ry="2.18879064"></ellipse>
            <path d="M176.220784,83.1335245 C174.845436,82.8485001 173.573714,83.1210119 172.405618,83.9510601 C170.653474,85.1961323 168.317941,100.574283 169.135476,100.846795 C169.953012,101.119307 177.583343,104.934472 178.128367,102.754378 C178.673391,100.574283 180.03595,83.1335245 176.220784,83.1335245 Z" id="Path" fill="url(#linearGradient-11)" fill-rule="nonzero"></path>
        </g>
    </g>
</svg>
